flaticon/science/test-tubes.svg

<svg xmlns="http://www.w3.org/2000/svg" width="32" height="32" viewBox="0 0 24 24">
    <path d="M 21.597656 10.132812 C 21.941406 10.132812 22.285156 9.960938 22.539062 9.703125 L 23.097656 9.144531 C 23.355469 8.890625 23.484375 8.546875 23.484375 8.203125 C 23.484375 7.859375 23.355469 7.515625 23.097656 7.257812 L 16.488281 0.648438 C 15.976562 0.132812 15.117188 0.132812 14.601562 0.648438 L 14.042969 1.207031 C 13.535156 1.714844 13.53125 2.554688 14.023438 3.074219 L 2.242188 14.855469 L 1.253906 15.839844 C -0.265625 17.320312 -0.402344 19.6875 0.835938 21.363281 C 0.847656 21.378906 0.859375 21.390625 0.871094 21.40625 C 0.902344 21.449219 0.933594 21.488281 0.964844 21.527344 C 0.988281 21.558594 1.011719 21.585938 1.039062 21.613281 C 1.058594 21.636719 1.082031 21.664062 1.105469 21.691406 C 1.152344 21.746094 1.203125 21.796875 1.253906 21.847656 L 1.855469 22.449219 C 2.671875 23.308594 3.746094 23.738281 4.902344 23.738281 C 6.0625 23.738281 7.132812 23.308594 7.949219 22.492188 L 20.675781 9.769531 C 20.929688 10.011719 21.261719 10.132812 21.597656 10.132812 Z M 14.644531 1.851562 L 15.203125 1.292969 C 15.289062 1.207031 15.417969 1.164062 15.546875 1.164062 C 15.632812 1.164062 15.761719 1.207031 15.847656 1.292969 L 22.457031 7.859375 C 22.539062 7.945312 22.582031 8.074219 22.582031 8.203125 C 22.582031 8.332031 22.539062 8.460938 22.457031 8.546875 L 21.898438 9.101562 C 21.726562 9.273438 21.425781 9.273438 21.253906 9.101562 L 20.867188 8.714844 L 15.074219 2.878906 C 15.023438 2.828125 14.96875 2.792969 14.914062 2.765625 L 14.644531 2.496094 C 14.472656 2.324219 14.472656 2.023438 14.644531 1.851562 Z M 14.496094 14.726562 L 3.574219 14.726562 L 14.601562 3.695312 L 17.347656 6.421875 L 20.074219 9.164062 Z M 2.589844 21.972656 C 2.585938 21.972656 2.585938 21.96875 2.582031 21.96875 C 2.539062 21.929688 2.5 21.890625 2.457031 21.847656 L 1.855469 21.25 C 1.855469 21.246094 1.851562 21.242188 1.847656 21.242188 C 1.8125 21.203125 1.773438 21.164062 1.738281 21.125 C 1.171875 20.496094 0.867188 19.691406 0.867188 18.84375 C 0.867188 18 1.171875 17.191406 1.738281 16.566406 C 1.777344 16.523438 1.816406 16.480469 1.855469 16.441406 L 2.714844 15.582031 L 13.636719 15.582031 L 7.347656 21.847656 C 6.0625 23.136719 3.929688 23.179688 2.589844 21.972656 Z M 2.589844 21.972656"/>
    <path d="M16.105469 7.601562L14.300781 5.800781C14.128906 5.628906 13.871094 5.628906 13.699219 5.800781 13.527344 5.96875 13.527344 6.226562 13.699219 6.398438L15.546875 8.246094C15.632812 8.332031 15.71875 8.375 15.847656 8.375 15.933594 8.375 16.0625 8.332031 16.105469 8.203125 16.273438 8.03125 16.273438 7.773438 16.105469 7.601562zM13.101562 7.042969C12.929688 6.871094 12.671875 6.871094 12.5 7.042969 12.328125 7.214844 12.328125 7.472656 12.5 7.644531L13.398438 8.546875C13.484375 8.632812 13.570312 8.675781 13.699219 8.675781 13.828125 8.675781 13.914062 8.632812 14 8.546875 14.171875 8.375 14.171875 8.117188 14 7.945312zM11.898438 8.246094C11.726562 8.074219 11.46875 8.074219 11.296875 8.246094 11.125 8.417969 11.125 8.675781 11.296875 8.847656L13.101562 10.648438C13.1875 10.734375 13.269531 10.777344 13.398438 10.777344 13.527344 10.777344 13.613281 10.734375 13.699219 10.648438 13.871094 10.476562 13.871094 10.21875 13.699219 10.046875zM10.695312 9.445312C10.523438 9.273438 10.265625 9.273438 10.09375 9.445312 9.925781 9.617188 9.925781 9.875 10.09375 10.046875L10.996094 10.949219C11.082031 11.035156 11.167969 11.078125 11.296875 11.078125 11.382812 11.078125 11.511719 11.035156 11.597656 10.949219 11.769531 10.777344 11.769531 10.519531 11.597656 10.347656zM9.496094 10.691406C9.324219 10.519531 9.066406 10.519531 8.894531 10.691406 8.722656 10.863281 8.722656 11.121094 8.894531 11.292969L10.695312 13.09375C10.78125 13.179688 10.867188 13.222656 10.996094 13.222656 11.082031 13.222656 11.210938 13.179688 11.296875 13.09375 11.46875 12.921875 11.46875 12.664062 11.296875 12.492188zM23.484375 13.136719L22.582031 12.234375C22.414062 12.0625 22.15625 12.0625 21.984375 12.234375L21.082031 13.136719C20.394531 13.824219 20.394531 14.898438 21.082031 15.582031 21.425781 15.925781 21.855469 16.097656 22.285156 16.097656 22.710938 16.097656 23.140625 15.96875 23.484375 15.582031 24.171875 14.898438 24.171875 13.824219 23.484375 13.136719zM22.882812 14.984375C22.582031 15.324219 22.027344 15.324219 21.683594 14.984375 21.339844 14.640625 21.339844 14.125 21.683594 13.78125L22.285156 13.179688 22.882812 13.78125C23.226562 14.125 23.226562 14.640625 22.882812 14.984375zM22.882812 14.984375"/>
</svg>

<svg xmlns="http://www.w3.org/2000/svg" width="32" height="32" viewBox="0 0 24 24">
    <path d="M21.598 10.133c.343 0 .687-.172.941-.43l.559-.558c.257-.254.386-.598.386-.942s-.129-.687-.386-.945l-6.61-6.61a1.344 1.344 0 0 0-1.886 0l-.559.559a1.35 1.35 0 0 0-.02 1.867L2.243 14.855l-.99.985c-1.519 1.48-1.655 3.848-.417 5.523l.035.043c.031.043.063.082.094.121a.781.781 0 0 0 .074.086l.066.078c.047.055.098.106.149.157l.601.601c.817.86 1.891 1.29 3.047 1.29 1.16 0 2.23-.43 3.047-1.247L20.676 9.77c.254.242.586.363.922.363zm-6.953-8.281l.558-.559a.488.488 0 0 1 .344-.129c.086 0 .215.043.3.129l6.61 6.566a.503.503 0 0 1 .125.344.503.503 0 0 1-.125.344l-.559.555a.467.467 0 0 1-.644 0l-.387-.387-5.793-5.836a.603.603 0 0 0-.16-.113l-.27-.27a.467.467 0 0 1 0-.644zm-.149 12.875H3.574L14.602 3.695l2.746 2.727 2.726 2.742zM2.59 21.973c-.004 0-.004-.004-.008-.004-.043-.04-.082-.078-.125-.121l-.602-.598a.008.008 0 0 0-.007-.008c-.036-.039-.075-.078-.11-.117a3.387 3.387 0 0 1-.87-2.281c0-.844.304-1.653.87-2.278.04-.043.078-.086.117-.125l.86-.859h10.922l-6.29 6.266c-1.285 1.289-3.417 1.332-4.757.125zm0 0"/>
    <path d="M16.105 7.602L14.301 5.8a.415.415 0 0 0-.602 0 .41.41 0 0 0 0 .597l1.848 1.848a.39.39 0 0 0 .3.129c.087 0 .216-.043.258-.172a.422.422 0 0 0 0-.601zm0 0M13.102 7.043a.415.415 0 0 0-.602 0 .415.415 0 0 0 0 .602l.898.902a.39.39 0 0 0 .301.129.39.39 0 0 0 .301-.13.415.415 0 0 0 0-.6zm0 0M11.898 8.246a.415.415 0 0 0-.601 0 .415.415 0 0 0 0 .602l1.805 1.8a.382.382 0 0 0 .296.13.39.39 0 0 0 .301-.13.415.415 0 0 0 0-.601zm0 0M10.695 9.445a.415.415 0 0 0-.601 0 .422.422 0 0 0 0 .602l.902.902a.39.39 0 0 0 .3.13.464.464 0 0 0 .302-.13.415.415 0 0 0 0-.601zm0 0M9.496 10.691a.415.415 0 0 0-.601 0 .415.415 0 0 0 0 .602l1.8 1.8a.39.39 0 0 0 .301.13.464.464 0 0 0 .3-.13.415.415 0 0 0 0-.6zm0 0M23.484 13.137l-.902-.903a.41.41 0 0 0-.598 0l-.902.903a1.707 1.707 0 0 0 0 2.445c.344.344.773.516 1.203.516.426 0 .856-.13 1.2-.516a1.707 1.707 0 0 0 0-2.445zm-.601 1.847c-.301.34-.856.34-1.2 0a.83.83 0 0 1 0-1.203l.602-.601.598.601a.83.83 0 0 1 0 1.203zm0 0"/>
</svg>
